static/assets/img/icons/theme/media/music.svg

<svg height="24" viewBox="0 0 24 24" width="24" xmlns="http://www.w3.org/2000/svg"><g fill="none" fill-rule="evenodd"><path d="m0 0h24v24h-24z" opacity="0"/><path d="m8 17.0400072v-9.0400072c0-.43738497.28424981-.82401898.70172501-.95447998l8.99999999-2.5c.6439306-.20122831 1.298275.27983974 1.298275.95447998v11.5c0 .0001911-.0000001.0003822-.0000002.0005733-.0003871 1.104306-1.1195268 1.9994267-2.4999998 1.9994267-1.3807119 0-2.5-.8954305-2.5-2s1.1192881-2 2.5-2c.1712329 0 .338445.0137721.5.0400072v-7.0400072l-7 1.875v9.125c0 .0001911-.00000005.0003822-.00000016.0005733-.00038712 1.104306-1.11952683 1.9994267-2.49999984 1.9994267-1.38071187 0-2.5-.8954305-2.5-2s1.11928813-2 2.5-2c.17123292 0 .33844503.0137721.5.0400072z" fill="#000" fill-rule="nonzero"/></g></svg>

<svg width="24px" height="24px" viewBox="0 0 24 24" version="1.1" xmlns="http://www.w3.org/2000/svg" xmlns:xlink="http://www.w3.org/1999/xlink">
    <title>Icon For Music</title>
    <g stroke="none" stroke-width="1" fill="none" fill-rule="evenodd">
        <rect opacity="0" x="0" y="0" width="24" height="24"></rect>
        <path d="M8,17.0400072 L8,8 C8,7.56261503 8.28424981,7.17598102 8.70172501,7.04552002 L17.701725,4.54552002 C18.3456556,4.34429171 19,4.82535976 19,5.5 L19,17 C19,17.0001911 18.9999999,17.0003822 18.9999998,17.0005733 C18.9996127,18.1048793 17.880473,19 16.5,19 C15.1192881,19 14,18.1045695 14,17 C14,15.8954305 15.1192881,15 16.5,15 C16.6712329,15 16.838445,15.0137721 17,15.0400072 L17,8 L10,9.875 L10,19 C10,19.0001911 9.99999995,19.0003822 9.99999984,19.0005733 C9.99961272,20.1048793 8.88047301,21 7.5,21 C6.11928813,21 5,20.1045695 5,19 C5,17.8954305 6.11928813,17 7.5,17 C7.67123292,17 7.83844503,17.0137721 8,17.0400072 Z" fill="#000000" fill-rule="nonzero"></path>
    </g>
</svg>
